kora-light-panel/panel/16/nomachine-disabled.svg

<svg xmlns="http://www.w3.org/2000/svg" width="16" height="16" version="1">
 <defs>
  <style id="current-color-scheme" type="text/css">
   .ColorScheme-Text { color:#444444; } .ColorScheme-Highlight { color:#4285f4; }
  </style>
 </defs>
 <path style="fill:currentColor;opacity:0.3" class="ColorScheme-Text" d="M 1.875 1 C 1.39025 1 1 1.39375 1 1.875 L 1 14.125 C 1 14.60625 1.39025 15 1.875 15 L 14.125 15 C 14.60625 15 15 14.60625 15 14.125 L 15 1.875 C 15 1.39375 14.60625 1 14.125 1 L 1.875 1 z M 2 4 L 4 4 L 4 9 L 2 9 L 2 4 z M 5 4 L 13 4 L 13 12 L 11 12 L 11 7 L 10 7 L 10 12 L 8 12 L 8 7 L 7 7 L 7 12 L 5 12 L 5 4 z M 2 10 L 4 10 L 4 12 L 2 12 L 2 10 z"/>
</svg>

<svg xmlns="http://www.w3.org/2000/svg" width="16" height="16" viewBox="0 0 16 16">
 <defs>
  <style id="current-color-scheme" type="text/css">
   .ColorScheme-Text { color:#444444; } .ColorScheme-Highlight { color:#4285f4; } .ColorScheme-NeutralText { color:#ff9800; } .ColorScheme-PositiveText { color:#4caf50; } .ColorScheme-NegativeText { color:#f44336; }
  </style>
 </defs> 
 <path style="opacity:0.3;fill:currentColor" class="ColorScheme-Text" d="m5 4h8v8h-2v-5h-1v5h-2v-5h-1v5h-2zm-3 6h2v2h-2zm0-6h2v5h-2z"/>
</svg>
